-----BEGIN PGP SIGNATURE-----

iQJPBAABCAA5FiEEFErtCle+fUroNdnYysWsT3QWSxcFAmqgZLwbFIAAAAAABAAO
bWFudTIsMi41KzEuMTIsMCwzAAoJEMrFrE90FksXyPEP/jPOItY+4gyhTquvbdFp
O5IMdBpXS13Bdsvxn23vR6bpHGjP7ZyOhPaVidkEZ7+8hNiI2gycPtnwi1Uyoc/y
9r7/XKhdN9hbLUHhqQKjBkxQ2Nm+rf0PZWXjgxPMP2L8CPNyvHidj6bfeKu9USwL
QwLigS9uTz2whzNFYMm8WXkFgjrxMD4mZhusAO7w3baWT161DGTcMICZj4GZc5m7
QcpxM/7x63iiHzeYAV/h6fpfvHzbSuNiVaG9u20Z224YEuGZPJSX0hvYs/Gr4w+X
ZPomtZ0zdJg4go+lLPORGpoEVCzecVxYXNL4VRv8Zls/r6Kqeia2ZCrh4Mj+ysg2
ZwleevCFyMMOZGvAPvwtGOSxvmyZt8L6bWfycvPjt0BnyOA3T8plbfj9f74pcveY
1Kej7AT0rvmEfOIFZ8r0gLElrdJ3lcyUOHIQv+47MoEboAKPRnsIvEl+2Pj8kJ6d
RiSU5ZoJjNFTBSaiWYVKHeDw+M7lxnf2TH6ioHGywzWGFOAh7a2iuVMZUsMgf636
zlARisU4+phUSAw3hcTOTAZiDMXno83yoo7ehISclZudVPgeRNCP6GYdwc16BZqo
twgMpviw66iGLe11uQc2m0bMRTimPK3AYqqF4vpFjLh8z9QMj2UR+XbKbh7q9utY
dx5WL/b272zr1ItKf0KRDx3Q
=isE6
-----END PGP SIGNATURE-----
