-----BEGIN PGP SIGNATURE-----

iQJPBAABCAA5FiEEFErtCle+fUroNdnYysWsT3QWSxcFAmqi3OsbFIAAAAAABAAO
bWFudTIsMi41KzEuMTEsMiwxAAoJEMrFrE90FksXst0P/1u1BwXlbCe4AQm+1l2S
GQ+XE/ilqfw2Ds0J8S24LZcG3rqFpzEkwxh/pOswVGMhJ31hjniqOC9YKhNTH7aK
AO56XVmNXQk3JB5hwReP7NgQqn8eNUna4n5/XgWyTGlrgpGWVX6+Rq1J3McQyK/g
5A6ZjCHjh3O2f64IQ5SeE2hysHkq81qt04btpuBiDoQ7sPpepgt+8TGg+mSc1Gvl
U3LZ5s9VbfyoYT7jvgnWUBi/kR8hd55CSeZmWsLyckfzZG4rbDdzgYo+3BXtZhra
Pa2OrU8VELyRe3SanmvXhn0S8ZyR/c7s15JOxiRu3sxZ1y45sBDf9op+M2Uq9gjk
/ptcfqc8N2dPhbYPr+ZTUR2bz/yUqgJbiMmAb5sixs0ENCgNFKhRD6NBaevx6yNf
OHHIvfDz5FUQQVkuZcV5pBTRoYs83mHmSR3JQmMhMmHofIxCxdj3dLcJFYZs0rM4
T2XOvBjs+8wzipJSegvKkF/2X/Oe/Liap41oW0/2Qfb/Dpoc3FsVg/WuJA8JPZGz
Dn+RsJjnuVWcT/IAVco0S3Vlkzx1P8xPMSAy42LD1X6MK+uag0IRKXxIlXgxADT8
7B4TCzOigLJMSBpr73ezAlnvrexMXBUk5TbpVDjoK/MULDN4RcEZtMutrHeJP9VQ
Fo2bqbwLpkYjH7vgWgw0J/i2
=SfPK
-----END PGP SIGNATURE-----
